images_elementary_svg/cmd/32/verticalcaption.svg

<svg height="32" width="32" xmlns="http://www.w3.org/2000/svg" xmlns:xlink="http://www.w3.org/1999/xlink"><radialGradient id="a" cx="605.71429" cy="486.64789" gradientTransform="matrix(.01566318 0 0 -.00823529 16.560422 6.019411)" gradientUnits="userSpaceOnUse" r="117.14286" xlink:href="#b"/><linearGradient id="b"><stop offset="0"/><stop offset="1" stop-opacity="0"/></linearGradient><radialGradient id="c" cx="605.71429" cy="486.64789" gradientTransform="matrix(-.01566318 0 0 -.00823529 20.439577 6.019411)" gradientUnits="userSpaceOnUse" r="117.14286" xlink:href="#b"/><linearGradient id="d" gradientTransform="matrix(.04576928 0 0 -.00823529 -.542324 6.019452)" gradientUnits="userSpaceOnUse" x1="302.85715" x2="302.85715" y1="366.64789" y2="609.50507"><stop offset="0" stop-opacity="0"/><stop offset=".5"/><stop offset="1" stop-opacity="0"/></linearGradient><linearGradient id="e" gradientTransform="matrix(0 -1 -1 0 31.005006 33.000125)" gradientUnits="userSpaceOnUse" x1="19" x2="19" y1="30" y2="0"><stop offset="0" stop-color="#aaa"/><stop offset="1" stop-color="#c8c8c8"/></linearGradient><linearGradient id="f" gradientTransform="matrix(.53064141 0 0 .58970049 39.269607 -1.791918)" gradientUnits="userSpaceOnUse" x1="5" x2="4.63863" y1="27" y2="5.861876"><stop offset="0" stop-opacity=".317829"/><stop offset="1" stop-opacity=".24031"/></linearGradient><linearGradient id="g" gradientTransform="matrix(.56756757 0 0 .72972971 2.378382 -2.513506)" gradientUnits="userSpaceOnUse" x1="31.047613" x2="31.047613" y1="34.962955" y2="11.666656"><stop offset="0" stop-color="#fff"/><stop offset=".03626217" stop-color="#fff" stop-opacity=".235294"/><stop offset=".95056331" stop-color="#fff" stop-opacity=".156863"/><stop offset="1" stop-color="#fff" stop-opacity=".392157"/></linearGradient><linearGradient id="h" gradientTransform="matrix(.62856997 0 0 .60839392 -41.164737 -20.534791)" gradientUnits="userSpaceOnUse" x1="97.307762" x2="97.307762" y1="73.200584" y2="41.970818"><stop offset="0" stop-color="#f4f4f4"/><stop offset="1" stop-color="#dbdbdb"/></linearGradient><g transform="matrix(1 0 0 -1 0 32)"><path d="m12.396 4.665-.018 19.97 16.334-.03.018-19.97zm-5.084 9.637c-.94 4.81-1.913 9.613-2.875 14.417l-.04.25h2.667c.872-3.895 1.48-7.85 2.34-11.748.053-.25 3.27.03 3.596-.222.952-.733-.316-2.007-.125-2.727z" fill="url(#h)"/><path d="m13.496 5.53 14.027-.044-.018 18.066-13.997.004z" fill="none" stroke="url(#g)"/><path d="m12 4v10h-5l-.104.54-2.876 14.052v.013l-.173 1.035 3.596-.017.118-.52 2.323-11.103h2.116l-.018 7h17.018v-21zm1 1.03 15-.03.045 18.94-15 .03.018-7h-2.89l.002-.01h-1.347l-2.31 11.342h-1.316l2.658-13.332 5.203.015z" fill="url(#f)"/><path d="m9.13 15.95 3.87.05v1l-4.172-.04z" fill="#fdfdfb"/><g transform="translate(2 2)"><path d="m11 3h15v-2h-15z" fill="url(#d)" opacity=".15"/><path d="m11 2.99989v-1.99989c-.806615-.0038-1.9500023.448074-1.9500023 1.000074s.900121.999816 1.9500023.999816z" fill="url(#c)" opacity=".15"/><path d="m26 2.99989v-1.99989c.806614-.0038 1.950002.448074 1.950002 1.000074s-.900122.999816-1.950002.999816z" fill="url(#a)" opacity=".15"/></g><path d="m25.5 22v-1.343625zm0-1.687375v-2.1875zm0-2.53125v-1.9375zm0-2.25v-.84375zm0-1.1875v-1.875zm0-2.25v-3.09375zm-2 9.906125v-2.656125zm0-3.062375v-1.75zm0-2.0625v-.875zm0-1.21875v-1.59375zm0-1.9375v-1.625zm0-1.9375v-2.59375zm-1.994995 10.218625v-3.281125zm0-3.624875v-4.625zm0-4.9375v-1.84375zm-2 8.562375v-1.59375zm0-1.093625v-5.90625zm-3.037243 1.093625v-2.093625zm0-2.406125v-5.0625zm0-5.375v-2.46875zm0-2.78125v-2.3125z" stroke="url(#e)"/></g></svg>

<?xml version="1.0" encoding="UTF-8" standalone="no"?>
<svg
   xmlns:dc="http://purl.org/dc/elements/1.1/"
   xmlns:cc="http://creativecommons.org/ns#"
   xmlns:rdf="http://www.w3.org/1999/02/22-rdf-syntax-ns#"
   xmlns:svg="http://www.w3.org/2000/svg"
   xmlns="http://www.w3.org/2000/svg"
   xmlns:xlink="http://www.w3.org/1999/xlink"
   xmlns:sodipodi="http://sodipodi.sourceforge.net/DTD/sodipodi-0.dtd"
   xmlns:inkscape="http://www.inkscape.org/namespaces/inkscape"
   height="32"
   width="32"
   version="1.1"
   id="svg38"
   sodipodi:docname="verticalcaption.svg"
   inkscape:version="0.92.4 (unknown)"
   inkscape:export-filename="/home/rizmut/Dokumen/Rizmut/Github/libreoffice-style-elementary/images_elementary/cmd/32/verticalcaption.png"
   inkscape:export-xdpi="96"
   inkscape:export-ydpi="96">
  <metadata
     id="metadata44">
    <rdf:RDF>
      <cc:Work
         rdf:about="">
        <dc:format>image/svg+xml</dc:format>
        <dc:type
           rdf:resource="http://purl.org/dc/dcmitype/StillImage" />
        <dc:title />
      </cc:Work>
    </rdf:RDF>
  </metadata>
  <defs
     id="defs42">
    <linearGradient
       gradientTransform="matrix(1,0,0,-1,3.999875,27.005006)"
       id="h"
       gradientUnits="userSpaceOnUse"
       x1="19"
       x2="19"
       y1="30"
       y2="0">
      <stop
         offset="0"
         stop-color="#aaa"
         id="stop1134" />
      <stop
         offset="1"
         stop-color="#c8c8c8"
         id="stop1136" />
    </linearGradient>
    <radialGradient
       id="d-3"
       cx="605.71429"
       cy="486.64789"
       gradientTransform="matrix(0.01566318,0,0,-0.00823529,16.560422,6.019411)"
       gradientUnits="userSpaceOnUse"
       r="117.14286"
       xlink:href="#a-6" />
    <linearGradient
       id="a-6">
      <stop
         offset="0"
         id="stop1743" />
      <stop
         offset="1"
         stop-opacity="0"
         id="stop1745" />
    </linearGradient>
    <radialGradient
       id="e"
       cx="605.71429"
       cy="486.64789"
       gradientTransform="matrix(-0.01566318,0,0,-0.00823529,20.439577,6.019411)"
       gradientUnits="userSpaceOnUse"
       r="117.14286"
       xlink:href="#a-6" />
    <linearGradient
       id="f"
       gradientTransform="matrix(0.04576928,0,0,-0.00823529,-0.542324,6.019452)"
       gradientUnits="userSpaceOnUse"
       x1="302.85715"
       x2="302.85715"
       y1="366.64789"
       y2="609.50507">
      <stop
         offset="0"
         stop-opacity="0"
         id="stop1764" />
      <stop
         offset=".5"
         id="stop1766" />
      <stop
         offset="1"
         stop-opacity="0"
         id="stop1768" />
    </linearGradient>
    <linearGradient
       gradientTransform="matrix(0,-1,-1,0,31.005006,33.000125)"
       id="h-7"
       gradientUnits="userSpaceOnUse"
       x1="19"
       x2="19"
       y1="30"
       y2="0">
      <stop
         offset="0"
         stop-color="#aaa"
         id="stop1776" />
      <stop
         offset="1"
         stop-color="#c8c8c8"
         id="stop1778" />
    </linearGradient>
  </defs>
  <sodipodi:namedview
     pagecolor="#ffffff"
     bordercolor="#666666"
     borderopacity="1"
     objecttolerance="10"
     gridtolerance="10"
     guidetolerance="10"
     inkscape:pageopacity="0"
     inkscape:pageshadow="2"
     inkscape:window-width="1366"
     inkscape:window-height="714"
     id="namedview40"
     showgrid="true"
     inkscape:zoom="10.429825"
     inkscape:cx="7.213494"
     inkscape:cy="15.438927"
     inkscape:window-x="0"
     inkscape:window-y="28"
     inkscape:window-maximized="1"
     inkscape:current-layer="g859">
    <inkscape:grid
       type="xygrid"
       id="grid851" />
  </sodipodi:namedview>
  <linearGradient
     id="a"
     gradientTransform="matrix(0.53064141,0,0,0.58970049,39.269607,-1.791918)"
     gradientUnits="userSpaceOnUse"
     x1="5"
     x2="4.63863"
     y1="27"
     y2="5.861876">
    <stop
       offset="0"
       stop-opacity=".317829"
       id="stop2" />
    <stop
       offset="1"
       stop-opacity=".24031"
       id="stop4" />
  </linearGradient>
  <linearGradient
     id="b"
     gradientTransform="matrix(0.56756757,0,0,0.72972971,2.378382,-2.513506)"
     gradientUnits="userSpaceOnUse"
     x1="31.047613"
     x2="31.047613"
     y1="34.962955"
     y2="11.666656">
    <stop
       offset="0"
       stop-color="#fff"
       id="stop7" />
    <stop
       offset=".03626217"
       stop-color="#fff"
       stop-opacity=".235294"
       id="stop9" />
    <stop
       offset=".95056331"
       stop-color="#fff"
       stop-opacity=".156863"
       id="stop11" />
    <stop
       offset="1"
       stop-color="#fff"
       stop-opacity=".392157"
       id="stop13" />
  </linearGradient>
  <linearGradient
     id="c"
     gradientTransform="matrix(0.62856997,0,0,0.60839392,-41.164737,-20.534791)"
     gradientUnits="userSpaceOnUse"
     x1="97.307762"
     x2="97.307762"
     y1="73.200584"
     y2="41.970818">
    <stop
       offset="0"
       stop-color="#f4f4f4"
       id="stop16" />
    <stop
       offset="1"
       stop-color="#dbdbdb"
       id="stop18" />
  </linearGradient>
  <radialGradient
     id="d"
     cx="2.25"
     cy="16"
     gradientTransform="matrix(.33947 0 0 .0828 5.28 28.227)"
     gradientUnits="userSpaceOnUse"
     r="16.875">
    <stop
       offset="0"
       id="stop21" />
    <stop
       offset="1"
       stop-opacity="0"
       id="stop23" />
  </radialGradient>
  <g
     id="g859"
     transform="matrix(1,0,0,-1,0,32)">
    <path
       id="path28"
       d="m 12.396,4.665 -0.018,19.97 16.334,-0.03 0.018,-19.97 z m -5.084,9.637 c -0.94,4.81 -1.913,9.613 -2.875,14.417 l -0.04,0.25 h 2.667 c 0.872,-3.895 1.48,-7.85 2.34,-11.748 0.053,-0.25 3.27,0.03 3.596,-0.222 0.952,-0.733 -0.316,-2.007 -0.125,-2.727 z"
       style="fill:url(#c)"
       inkscape:connector-curvature="0" />
    <path
       id="path30"
       d="M 13.496,5.53 27.523,5.486 27.505,23.552 13.508,23.556 Z"
       style="fill:none;stroke:url(#b)"
       inkscape:connector-curvature="0" />
    <path
       id="path34"
       d="M 12,4 V 14 H 7 L 6.896,14.54 4.02,28.592 v 0.013 L 3.847,29.64 7.443,29.623 7.561,29.103 9.884,18 H 12 l -0.018,7 H 29 V 4 Z M 13,5.03 28,5 l 0.045,18.94 -15,0.03 0.018,-7 h -2.89 l 0.002,-0.01 H 8.828 L 6.518,28.302 H 5.202 L 7.86,14.97 l 5.203,0.015 z"
       style="fill:url(#a)"
       inkscape:connector-curvature="0" />
    <path
       id="path36"
       d="M 9.13,15.95 13,16 v 1 L 8.828,16.96 Z"
       inkscape:connector-curvature="0"
       style="fill:#fdfdfb"
       sodipodi:nodetypes="ccccc" />
    <g
       id="g2421"
       transform="translate(2,2)">
      <path
         id="path1786"
         d="M 11,3 H 26 V 1 H 11 Z"
         style="opacity:0.15;fill:url(#f)"
         inkscape:connector-curvature="0"
         sodipodi:nodetypes="ccccc" />
      <path
         id="path1788"
         d="M 11,2.99989 V 1 C 10.193385,0.9962 9.0499977,1.448074 9.0499977,2.000074 c 0,0.552 0.900121,0.999816 1.9500023,0.999816 z"
         style="opacity:0.15;fill:url(#e)"
         inkscape:connector-curvature="0" />
      <path
         id="path1790"
         d="M 26,2.99989 V 1 c 0.806614,-0.0038 1.950002,0.448074 1.950002,1.000074 0,0.552 -0.900122,0.999816 -1.950002,0.999816 z"
         style="opacity:0.15;fill:url(#d-3)"
         inkscape:connector-curvature="0" />
    </g>
    <path
       inkscape:connector-curvature="0"
       style="stroke:url(#h-7)"
       d="m 25.5,22 v -1.343625 z m 0,-1.687375 v -2.1875 z m 0,-2.53125 v -1.9375 z m 0,-2.25 v -0.84375 z m 0,-1.1875 v -1.875 z m 0,-2.25 V 9.000125 Z M 23.5,22 v -2.656125 z m 0,-3.062375 v -1.75 z m 0,-2.0625 v -0.875 z m 0,-1.21875 v -1.59375 z m 0,-1.9375 v -1.625 z m 0,-1.9375 V 9.187625 Z M 21.505005,22 v -3.281125 z m 0,-3.624875 v -4.625 z m 0,-4.9375 v -1.84375 z m -2,8.562375 v -1.59375 z m 0,-1.093625 v -5.90625 z M 16.467762,22 v -2.093625 z m 0,-2.406125 v -5.0625 z m 0,-5.375 v -2.46875 z m 0,-2.78125 v -2.3125 z"
       id="path1798"
       sodipodi:nodetypes="ccccccccccccccccccccccccccccccccccccccccccccccccccccccccccccccc" />
  </g>
</svg>
